assets/img/components/videoplayer-header.svg

<svg width="577" height="145" viewBox="0 0 577 145" fill="none" xmlns="http://www.w3.org/2000/svg">
<path d="M434 145H328.424C306.651 145 289 127.147 289 105.125V0H434V145Z" fill="#286AD8"/>
<path d="M289 105.125V0C208.919 0 144 64.9187 144 145H249.125C271.148 145 289 127.147 289 105.125Z" fill="#286AD8"/>
<path d="M536.879 -7.62939e-05C558.652 -7.62939e-05 576.303 17.8524 576.303 39.875V145L427 145V0L536.879 -7.62939e-05Z" fill="#286AD8"/>
<path d="M45.6562 74.2495C27.6379 74.2495 13.0312 59.6428 13.0312 41.6245C13.0312 23.6062 27.6379 8.99951 45.6562 8.99951C63.6745 8.99951 78.2812 23.6062 78.2812 41.6245C78.2812 59.6428 63.6745 74.2495 45.6562 74.2495Z" fill="#286AD8"/>
<path d="M0 145H145V0L0 145Z" fill="#286AD8"/>
<g opacity="0.55" style="mix-blend-mode:multiply">
<path d="M522.989 37.8569C524.528 37.8569 525.916 38.5285 526.889 39.5806C527.004 39.6866 527.101 39.7841 527.207 39.8989C527.322 40.0049 527.428 40.1113 527.525 40.2173C527.631 40.3144 527.738 40.4208 527.844 40.5356C527.958 40.6414 528.064 40.7472 528.161 40.853C528.276 40.959 528.374 41.0566 528.48 41.1714C528.594 41.2774 528.701 41.3837 528.798 41.4897C528.904 41.5869 529.01 41.6932 529.116 41.8081C529.231 41.9142 529.337 42.0204 529.435 42.1265C529.55 42.2326 529.647 42.3299 529.753 42.4448C529.868 42.5509 529.974 42.6571 530.071 42.7632C530.177 42.8604 530.284 42.9667 530.39 43.0815C530.505 43.1876 530.611 43.2939 530.708 43.3999C530.823 43.5059 530.92 43.6034 531.026 43.7183C531.141 43.8242 531.248 43.9306 531.345 44.0366C531.451 44.1336 531.556 44.2394 531.662 44.354C531.777 44.46 531.883 44.5664 531.981 44.6724C532.095 44.7784 532.193 44.8759 532.299 44.9907C532.414 45.0968 532.52 45.2031 532.617 45.3091C532.723 45.4063 532.83 45.5125 532.936 45.6274C533.051 45.7335 533.157 45.8397 533.254 45.9458C533.369 46.0519 533.466 46.1492 533.572 46.2642C533.687 46.3702 533.793 46.4765 533.891 46.5825C533.997 46.6797 534.103 46.786 534.209 46.9009C534.324 47.0069 534.43 47.1132 534.527 47.2192C534.642 47.3252 534.74 47.4228 534.846 47.5376C534.96 47.6434 535.057 47.7404 535.163 47.855C535.278 47.9609 535.384 48.0673 535.481 48.1733C535.587 48.2705 535.694 48.3768 535.8 48.4917C535.915 48.5977 536.021 48.704 536.118 48.81C536.233 48.9161 536.33 49.0135 536.437 49.1284C536.551 49.2345 536.658 49.3407 536.755 49.4467C536.861 49.544 536.967 49.6502 537.073 49.7651C537.188 49.8712 537.294 49.9774 537.392 50.0835C537.506 50.1895 537.604 50.287 537.71 50.4018C537.825 50.5078 537.931 50.6142 538.028 50.7202C538.134 50.8173 538.241 50.9237 538.347 51.0385C538.461 51.1443 538.567 51.2501 538.664 51.3559C538.779 51.4619 538.876 51.5595 538.982 51.6743C539.097 51.7803 539.204 51.8866 539.301 51.9926C539.407 52.0898 539.513 52.1961 539.619 52.311C539.734 52.4171 539.84 52.5233 539.938 52.6294C540.052 52.7355 540.15 52.8328 540.256 52.9477C540.371 53.0538 540.477 53.16 540.574 53.2661C540.68 53.3633 540.787 53.4695 540.893 53.5844C541.007 53.6905 541.114 53.7968 541.211 53.9028C541.326 54.0088 541.423 54.1063 541.529 54.2212C541.644 54.3271 541.751 54.4335 541.848 54.5395C541.953 54.6365 542.059 54.7423 542.165 54.8569C542.28 54.9629 542.386 55.0693 542.483 55.1753C542.598 55.2813 542.696 55.3788 542.802 55.4936C542.917 55.5997 543.014 55.6971 543.12 55.812C543.235 55.918 543.341 56.0243 543.439 56.1303C543.545 56.2276 543.651 56.3338 543.757 56.4487C543.872 56.5548 543.978 56.661 544.075 56.7671C544.19 56.8731 544.288 56.9705 544.394 57.0854C544.508 57.1914 544.615 57.2977 544.712 57.4038C544.818 57.501 544.924 57.6073 545.03 57.7221C545.145 57.8281 545.252 57.9345 545.349 58.0405C545.463 58.1463 545.56 58.2433 545.666 58.3579C545.781 58.4638 545.887 58.5703 545.984 58.6762C546.09 58.7734 546.197 58.8798 546.303 58.9946C546.418 59.1006 546.524 59.2069 546.621 59.313C546.736 59.419 546.833 59.5164 546.939 59.6313C547.054 59.7374 547.161 59.8436 547.258 59.9497C547.364 60.0469 547.47 60.1531 547.576 60.268C547.691 60.3741 547.797 60.4803 547.895 60.5864C548.009 60.6924 548.107 60.7899 548.213 60.9048C548.328 61.0108 548.434 61.1171 548.531 61.2231C548.637 61.3203 548.744 61.4267 548.85 61.5415C548.964 61.6473 549.07 61.7531 549.167 61.8589C549.282 61.9648 549.379 62.0624 549.485 62.1772C549.6 62.2832 549.707 62.3896 549.804 62.4956C549.91 62.5928 550.016 62.6991 550.122 62.8139C550.237 62.92 550.343 63.0262 550.44 63.1323C550.555 63.2384 550.653 63.3357 550.759 63.4507C550.874 63.5567 550.971 63.6541 551.077 63.769C551.192 63.8751 551.298 63.9813 551.396 64.0874C551.502 64.1846 551.608 64.2909 551.714 64.4057C551.829 64.5117 551.935 64.6181 552.032 64.7241C552.147 64.83 552.245 64.9276 552.351 65.0424C552.465 65.1482 552.571 65.254 552.668 65.3598C552.774 65.457 552.88 65.5634 552.986 65.6782C553.101 65.7842 553.208 65.8905 553.305 65.9965C553.42 66.1026 553.517 66.2 553.623 66.3149C553.738 66.421 553.844 66.5272 553.941 66.6333C554.048 66.7305 554.154 66.8367 554.26 66.9516C554.375 67.0577 554.481 67.1639 554.578 67.27C554.693 67.376 554.79 67.4735 554.897 67.5883C555.011 67.6944 555.118 67.8007 555.215 67.9067C555.321 68.0039 555.427 68.1102 555.533 68.2251C555.648 68.331 555.754 68.4375 555.852 68.5434C555.966 68.6492 556.063 68.7462 556.169 68.8608C556.284 68.9668 556.39 69.0732 556.487 69.1792C556.593 69.2763 556.7 69.3827 556.806 69.4975C556.921 69.6036 557.027 69.7099 557.124 69.8159C557.239 69.9219 557.336 70.0193 557.442 70.1342C557.557 70.2403 557.664 70.3465 557.761 70.4526C557.867 70.5498 557.973 70.656 558.079 70.771C558.194 70.877 558.3 70.9833 558.397 71.0893C558.512 71.1953 558.61 71.2928 558.716 71.4077C558.831 71.5137 558.928 71.6112 559.034 71.726C559.149 71.832 559.255 71.9384 559.353 72.0444C559.458 72.1414 559.564 72.2472 559.67 72.3618C559.785 72.4678 559.891 72.5742 559.988 72.6801C560.103 72.7862 560.201 72.8837 560.307 72.9985C560.422 73.1045 560.528 73.2108 560.625 73.3169C560.731 73.4141 560.837 73.5203 560.943 73.6352C561.058 73.7413 561.165 73.8475 561.262 73.9536C561.377 74.0597 561.474 74.157 561.58 74.2719C561.695 74.378 561.801 74.4842 561.898 74.5903C562.004 74.6875 562.111 74.7938 562.217 74.9087C562.332 75.0147 562.438 75.121 562.535 75.227C562.65 75.333 562.748 75.4306 562.854 75.5454C562.968 75.6512 563.074 75.757 563.171 75.8628C563.277 75.9599 563.383 76.0663 563.489 76.1811C563.604 76.2871 563.71 76.3935 563.808 76.4995C563.923 76.6055 564.02 76.703 564.126 76.8178C564.241 76.9239 564.347 77.0301 564.444 77.1362C564.55 77.2334 564.657 77.3396 564.763 77.4546C564.878 77.5606 564.984 77.6668 565.081 77.7729C565.196 77.879 565.293 77.9764 565.399 78.0913C565.514 78.1973 565.621 78.3036 565.718 78.4096C565.824 78.5068 565.93 78.6132 566.036 78.728C566.151 78.834 566.257 78.9404 566.355 79.0464C566.469 79.1521 566.566 79.2492 566.672 79.3637C566.787 79.4697 566.884 79.5673 566.99 79.6821C567.105 79.7881 567.211 79.8945 567.309 80.0005C567.415 80.0977 567.521 80.2039 567.627 80.3188C567.742 80.4249 567.848 80.5311 567.945 80.6372C568.06 80.7433 568.158 80.8406 568.264 80.9555C568.379 81.0616 568.485 81.1678 568.582 81.2739C568.688 81.3711 568.794 81.4774 568.9 81.5923C569.015 81.6983 569.122 81.8046 569.219 81.9106C569.334 82.0166 569.431 82.1141 569.537 82.229C569.652 82.3349 569.758 82.4414 569.855 82.5473C569.961 82.6443 570.067 82.7501 570.173 82.8647C570.288 82.9707 570.394 83.0771 570.491 83.1831C570.606 83.2891 570.704 83.3866 570.81 83.5014C570.924 83.6075 571.031 83.7138 571.128 83.8198C571.234 83.917 571.34 84.0232 571.446 84.1381C571.561 84.2442 571.667 84.3504 571.765 84.4565C571.88 84.5626 571.977 84.6599 572.083 84.7749C572.198 84.8809 572.304 84.9872 572.401 85.0932C572.507 85.1904 572.614 85.2967 572.72 85.4116C572.835 85.5176 572.941 85.6239 573.038 85.7299C573.153 85.8359 573.251 85.9335 573.356 86.0483C573.471 86.1541 573.577 86.2599 573.674 86.3657C573.78 86.4628 573.886 86.5693 573.992 86.684C574.107 86.79 574.213 86.8964 574.311 87.0024C574.425 87.1084 574.523 87.2059 574.629 87.3208C574.744 87.4268 574.841 87.5242 574.947 87.6391C575.062 87.7452 575.168 87.8514 575.266 87.9575C575.372 88.0547 575.478 88.1609 575.584 88.2758C575.699 88.3819 575.805 88.4881 575.902 88.5942C576.017 88.7002 576.115 88.7977 576.221 88.9126C576.249 88.9386 576.276 88.9656 576.303 88.9917V145H392.812C392.778 144.965 392.743 144.763 392.711 144.725C392.605 144.619 392.49 144.522 392.393 144.407C392.286 144.301 392.171 144.203 392.074 144.088C391.968 143.982 391.853 143.885 391.756 143.77C391.65 143.664 391.535 143.567 391.437 143.452C391.331 143.346 391.216 143.248 391.119 143.133C391.013 143.027 390.899 142.93 390.802 142.815C390.696 142.709 390.581 142.612 390.483 142.497C390.377 142.391 390.262 142.293 390.165 142.178C390.059 142.072 389.944 141.975 389.847 141.86C389.741 141.754 389.626 141.656 389.528 141.542C389.422 141.436 389.307 141.339 389.21 141.224C389.104 141.118 388.989 141.021 388.892 140.906C388.786 140.8 388.67 140.702 388.573 140.587C388.467 140.481 388.352 140.384 388.255 140.269C388.149 140.163 388.034 140.066 387.937 139.951C387.83 139.845 387.715 139.747 387.618 139.632C387.512 139.526 387.398 139.429 387.301 139.314C387.195 139.208 387.08 139.111 386.982 138.996C386.876 138.89 386.761 138.792 386.664 138.677C386.558 138.571 386.443 138.474 386.346 138.359C386.24 138.253 386.125 138.156 386.027 138.041C385.921 137.935 385.806 137.838 385.709 137.723C385.603 137.617 385.488 137.52 385.391 137.405C385.285 137.299 385.169 137.201 385.072 137.086C384.966 136.98 384.851 136.883 384.754 136.768C384.648 136.662 384.533 136.565 384.436 136.45C384.329 136.344 384.214 136.246 384.117 136.131C384.011 136.025 383.897 135.928 383.8 135.813C383.694 135.707 383.579 135.61 383.481 135.495C383.375 135.389 383.26 135.291 383.163 135.176C383.057 135.07 382.942 134.973 382.845 134.858C382.739 134.752 382.624 134.654 382.526 134.54C382.42 134.434 382.305 134.337 382.208 134.222C382.102 134.116 381.987 134.019 381.89 133.904C381.784 133.798 381.669 133.7 381.571 133.585C381.465 133.479 381.35 133.382 381.253 133.267C381.147 133.161 381.032 133.064 380.935 132.949C380.828 132.843 380.713 132.745 380.616 132.63C380.51 132.524 380.396 132.427 380.299 132.312C380.193 132.206 380.078 132.109 379.98 131.994C379.874 131.888 379.759 131.79 379.662 131.675C379.556 131.569 379.441 131.472 379.344 131.357C379.238 131.251 379.123 131.154 379.025 131.039C378.919 130.933 378.804 130.836 378.707 130.721C378.601 130.615 378.486 130.518 378.389 130.403C378.283 130.297 378.168 130.199 378.07 130.084C377.964 129.978 377.849 129.881 377.752 129.766C377.646 129.66 377.531 129.563 377.434 129.448C377.328 129.342 377.212 129.244 377.115 129.129C377.009 129.023 376.895 128.926 376.798 128.811C376.692 128.705 376.577 128.608 376.479 128.493C376.373 128.387 376.258 128.289 376.161 128.174C376.055 128.068 375.94 127.971 375.843 127.856C375.737 127.75 375.622 127.653 375.524 127.538C375.418 127.432 375.303 127.335 375.206 127.22C375.1 127.114 374.985 127.017 374.888 126.902C374.782 126.796 374.667 126.698 374.569 126.584C374.463 126.477 374.348 126.38 374.251 126.265C374.145 126.159 374.03 126.062 373.933 125.947C373.827 125.841 373.711 125.743 373.614 125.628C373.508 125.522 373.394 125.425 373.297 125.31C373.191 125.204 373.076 125.107 372.979 124.992C372.872 124.886 372.757 124.788 372.66 124.673C372.554 124.567 372.439 124.47 372.342 124.355C372.236 124.249 372.121 124.152 372.023 124.037C371.917 123.931 371.802 123.834 371.705 123.719C370.812 122.871 370.202 121.73 370.069 120.43C370.052 120.254 370.043 120.077 370.043 119.891V43.1606C370.043 40.2345 372.421 37.8569 375.348 37.8569H522.989Z" fill="#1643BB" fill-opacity="0.5"/>
</g>
<rect x="369.856" y="37.9717" width="156.251" height="85.3393" rx="5" stroke="#5287DF" stroke-width="2"/>
<path d="M368.856 108.979H527.108V118.311C527.108 121.625 524.421 124.311 521.108 124.311H374.856C371.543 124.311 368.856 121.625 368.856 118.311V108.979Z" fill="#5287DF"/>
<path d="M376.147 116.487C376.147 115.765 376.733 115.179 377.456 115.179H405.887C406.609 115.179 407.195 115.765 407.195 116.487C407.195 117.21 406.609 117.796 405.887 117.796H377.456C376.733 117.796 376.147 117.21 376.147 116.487Z" fill="#286AD8"/>
<path d="M447.672 57.5005C438.155 57.5005 430.442 65.2133 430.442 74.7297C430.442 84.2461 438.155 91.9589 447.672 91.9589C457.188 91.9589 464.901 84.2461 464.901 74.7297C464.901 65.2133 457.188 57.5005 447.672 57.5005ZM453.955 75.0083L444.314 80.573C443.903 80.8076 443.39 80.5143 443.39 80.0378V68.9084C443.39 68.4392 443.903 68.1386 444.314 68.3732L453.955 73.9379C454.365 74.1725 454.365 74.7664 453.955 75.001V75.0083Z" fill="#5287DF"/>
</svg>

<svg xmlns="http://www.w3.org/2000/svg" width="577" height="145" fill="none" viewBox="0 0 577 145"><path fill="#286ad8" d="M434 145H328.424C306.651 145 289 127.147 289 105.125V0h145zM289 105.125V0c-80.081 0-145 64.919-145 145h105.125C271.148 145 289 127.147 289 105.125"/><path fill="#286ad8" d="M536.879 0c21.773 0 39.424 17.852 39.424 39.875V145H427V0zM45.656 74.25c-18.018 0-32.625-14.607-32.625-32.626S27.638 9 45.656 9s32.625 14.606 32.625 32.624S63.674 74.25 45.656 74.25M0 145h145V0z"/><path fill="#1643bb" fill-opacity=".5" d="M522.989 37.857a5.3 5.3 0 0 1 3.9 1.724c.115.106.212.203.318.318a5 5 0 0 1 .318.318q.16.146.319.319.171.158.317.317c.115.106.213.204.319.318q.172.16.318.319.159.145.318.318.172.159.319.319c.115.106.212.203.318.318a5 5 0 0 1 .318.318q.16.146.319.319.173.159.318.318c.115.106.212.203.318.318q.173.16.319.319.159.145.317.317.172.159.319.318c.114.106.212.204.318.319q.173.159.318.318.16.146.319.318a5 5 0 0 1 .318.319c.115.106.212.203.318.318q.172.159.319.319.159.145.318.318a5 5 0 0 1 .318.318c.115.106.213.204.319.319.114.105.211.202.317.317q.173.159.318.318.16.146.319.319a5 5 0 0 1 .318.318c.115.106.212.203.319.318q.172.16.318.319.159.146.318.318.172.159.319.319c.114.105.212.203.318.318a5 5 0 0 1 .318.318q.16.146.319.319.171.158.317.317c.115.106.212.203.318.318q.173.16.319.319.159.145.318.318.172.159.319.318c.114.107.212.204.318.319a5 5 0 0 1 .318.318q.16.146.319.318.172.16.318.319c.115.106.212.203.318.318q.173.16.319.319.158.144.317.317a5 5 0 0 1 .318.318c.115.106.213.204.319.319.115.106.212.203.318.318q.172.159.319.318.159.147.318.319a5 5 0 0 1 .318.318c.115.106.213.203.319.318q.172.16.318.319.159.146.318.318.173.159.319.319c.114.105.211.202.317.317a5 5 0 0 1 .318.318q.16.146.319.319.173.159.318.318c.115.106.212.203.318.318q.173.16.319.319.159.146.318.318.172.159.319.318c.114.106.212.204.318.319a5 5 0 0 1 .318.318q.16.146.319.319.171.158.317.317c.115.106.212.203.318.318q.173.16.319.319.159.146.318.318a5 5 0 0 1 .318.318c.115.106.213.204.319.319.115.106.212.203.318.318q.172.159.319.318.159.147.318.319a5 5 0 0 1 .318.318c.115.106.213.204.319.318q.171.159.317.318.159.145.318.318.173.16.319.319c.115.106.212.203.318.318a5 5 0 0 1 .318.318q.16.147.319.319a5 5 0 0 1 .318.318 6 6 0 0 1 .319.318q.172.16.318.319.159.145.318.318.172.16.319.318c.114.106.211.203.317.318a5 5 0 0 1 .318.318q.16.146.319.319.173.159.318.318c.115.106.212.203.318.318q.173.16.319.319.159.145.318.318a5 5 0 0 1 .318.318c.115.106.213.204.319.319.115.106.212.203.318.318q.172.159.319.318.158.145.317.318.173.159.318.318c.115.106.213.204.319.319q.173.159.318.318.159.145.318.318.173.159.319.319c.115.106.212.203.318.318a5 5 0 0 1 .318.318q.16.146.319.319a5 5 0 0 1 .318.318c.115.106.213.204.319.318q.171.159.317.318.159.145.318.318.172.16.319.319c.115.106.212.203.318.318a5 5 0 0 1 .318.318q.16.146.319.319.173.159.318.318c.115.106.212.203.318.318q.173.16.319.319.159.145.318.318.172.159.319.318c.114.106.211.203.317.318.115.106.212.203.318.318q.172.159.319.319.159.145.318.318a5 5 0 0 1 .318.318c.115.106.213.204.319.319a5 5 0 0 1 .318.318q.159.145.318.318.173.16.319.319c.115.106.212.203.318.318a5 5 0 0 1 .318.318q.159.145.318.318a5 5 0 0 1 .318.318c.115.106.213.204.319.318q.172.16.318.319.159.145.318.318.172.159.319.319c.115.106.212.203.318.318a5 5 0 0 1 .318.318q.16.146.319.319a5 5 0 0 1 .318.318c.115.106.213.203.318.318q.173.159.318.318.159.145.318.318.172.159.319.318c.114.106.212.204.318.319.115.106.212.203.318.318q.172.159.319.319.159.146.318.318a5 5 0 0 1 .318.318c.115.106.213.204.319.319l.082.079V145H392.812c-.034-.035-.069-.237-.101-.275-.106-.106-.221-.203-.318-.318-.107-.106-.222-.204-.319-.319-.106-.106-.221-.203-.318-.318-.106-.106-.221-.203-.319-.318-.106-.106-.221-.204-.318-.319-.106-.106-.22-.203-.317-.318-.106-.106-.221-.203-.319-.318-.106-.106-.221-.204-.318-.319-.106-.106-.221-.203-.318-.318-.106-.106-.221-.204-.319-.318-.106-.106-.221-.203-.318-.318-.106-.106-.221-.203-.318-.318-.106-.106-.222-.204-.319-.319-.106-.106-.221-.203-.318-.318-.106-.106-.221-.203-.318-.318-.107-.106-.222-.204-.319-.319-.106-.106-.22-.203-.317-.318-.106-.106-.221-.203-.319-.318-.106-.106-.221-.204-.318-.319-.106-.106-.221-.203-.318-.318-.106-.106-.221-.203-.319-.318-.106-.106-.221-.203-.318-.318-.106-.106-.221-.203-.318-.318-.106-.106-.222-.204-.319-.319-.106-.106-.221-.203-.318-.318-.106-.106-.221-.203-.318-.318-.107-.106-.222-.204-.319-.319-.106-.106-.22-.203-.317-.318-.106-.106-.221-.203-.319-.318-.106-.106-.221-.204-.318-.319-.106-.106-.221-.203-.318-.318-.106-.106-.221-.204-.319-.318-.106-.106-.221-.203-.318-.318-.106-.106-.221-.203-.318-.318-.106-.106-.221-.204-.319-.319-.106-.106-.221-.203-.318-.318-.106-.106-.221-.203-.318-.318-.107-.106-.222-.204-.319-.319-.106-.106-.22-.203-.317-.318-.106-.106-.221-.203-.319-.318-.106-.106-.221-.204-.318-.319-.106-.106-.221-.203-.318-.318-.106-.106-.221-.203-.319-.318-.106-.106-.221-.203-.318-.318-.106-.106-.221-.203-.318-.318-.106-.106-.221-.204-.319-.319-.106-.106-.221-.203-.318-.318-.106-.106-.221-.203-.318-.318-.106-.106-.222-.204-.319-.319-.106-.106-.22-.203-.317-.318-.106-.106-.221-.203-.319-.318-.106-.106-.221-.204-.318-.319-.106-.106-.221-.203-.318-.318-.106-.106-.221-.203-.319-.318-.106-.106-.221-.203-.318-.318-.106-.106-.221-.203-.318-.318-.106-.106-.221-.204-.319-.318-.106-.107-.221-.204-.318-.319-.106-.106-.221-.203-.318-.318-.106-.106-.222-.204-.319-.319-.106-.106-.22-.203-.317-.318-.106-.106-.221-.203-.318-.318-.107-.106-.222-.204-.319-.319-.106-.106-.221-.203-.318-.318-.106-.106-.221-.203-.319-.318-.106-.106-.221-.203-.318-.318a5.27 5.27 0 0 1-1.636-3.289 6 6 0 0 1-.026-.539v-76.73a5.31 5.31 0 0 1 5.305-5.304z" opacity=".55" style="mix-blend-mode:multiply"/><rect width="156.251" height="85.339" x="369.856" y="37.972" stroke="#5287df" stroke-width="2" rx="5"/><path fill="#5287df" d="M368.856 108.979h158.252v9.332a6 6 0 0 1-6 6H374.856a6 6 0 0 1-6-6z"/><path fill="#286ad8" d="M376.147 116.487c0-.722.586-1.308 1.309-1.308h28.431a1.308 1.308 0 0 1 0 2.617h-28.431a1.31 1.31 0 0 1-1.309-1.309"/><path fill="#5287df" d="M447.672 57.5c-9.517 0-17.23 7.713-17.23 17.23s7.713 17.229 17.23 17.229 17.229-7.713 17.229-17.23-7.713-17.228-17.229-17.228m6.283 17.508-9.641 5.565a.617.617 0 0 1-.924-.535v-11.13c0-.469.513-.77.924-.535l9.641 5.565c.41.234.41.828 0 1.063z"/></svg>
